X:782
T:Danse des Paysans, Bergen. [8]
T:peasant dance from the Bj\/orgvin Diocese, Norway
C:John Malchair's Third Collection of Tunes
F:https://www.vwml.org/record/Malchair/3619/p78
F:www.vwml.org/topics/historic-dance-and-tune-books/Malchair
Z:Eric Conrad Mar 2020
N:No title in MS.
N:NB1) Rest (length=1/8) omitted at end of A.
W:NB1: Rest in MS omitted at end of measure 4.
M:2/4
L:1/16
K:Am
P:A
|: a2 | (ge)(fd) A>(_BAG) | (FD)(E^C) A,2a2 | (ge)(fd) A>(_BAG) | (FD)(E^C) "_NB1"A,2 :|
% repeat marked at start but not at end of B strain
P:B
|: A,2 | DEFG A>(BAG) | (FD)(E^C) A,2A,2 | (DEFG) A>(BAG) | (FD)(E^C) A,2D^C | =C4-C2 :|


